svg/education/backpack_fill.svg

<?xml version="1.0" encoding="UTF-8"?>
<svg width="24px" height="24px" viewBox="0 0 24 24" version="1.1" xmlns="http://www.w3.org/2000/svg" xmlns:xlink="http://www.w3.org/1999/xlink">
    <title>backpack_fill</title>
    <g id="Icon" stroke="none" stroke-width="1" fill="none" fill-rule="evenodd">
        <g id="Education" transform="translate(-336.000000, -144.000000)">
            <g id="backpack_fill" transform="translate(336.000000, 144.000000)">
                <path d="M24,0 L24,24 L0,24 L0,0 L24,0 Z M12.5935,23.2578 L12.5819,23.2595 L12.5109,23.295 L12.4919,23.2987 L12.4767,23.295 L12.4057,23.2595 C12.3958,23.2564 12.387,23.259 12.3821,23.2649 L12.378,23.2758 L12.3609,23.7031 L12.3659,23.7235 L12.3769,23.7357 L12.4805,23.8097 L12.4953,23.8136 L12.5071,23.8097 L12.6107,23.7357 L12.6233,23.7197 L12.6267,23.7031 L12.6096,23.2758 C12.6076,23.2657 12.601,23.2593 12.5935,23.2578 Z M12.8584,23.1453 L12.8445,23.1473 L12.6598,23.2397 L12.6499,23.2499 L12.6472,23.2611 L12.6651,23.6906 L12.6699,23.7034 L12.6784,23.7105 L12.8793,23.8032 C12.8914,23.8069 12.9022,23.803 12.9078,23.7952 L12.9118,23.7812 L12.8777,23.1665 C12.8753,23.1546 12.8674,23.147 12.8584,23.1453 Z M12.143,23.1473 C12.1332,23.1424 12.1222,23.1453 12.1156,23.1526 L12.1099,23.1665 L12.0758,23.7812 C12.0751,23.7927 12.0828,23.8019 12.0926,23.8046 L12.1083,23.8032 L12.3092,23.7105 L12.3186,23.7024 L12.3225,23.6906 L12.3404,23.2611 L12.3372,23.2485 L12.3278,23.2397 L12.143,23.1473 Z" id="MingCute" fill-rule="nonzero"></path>
                <path d="M12,2 C13.8924,2 15.4779,3.31414 15.8936,5.07962 C18.2286,5.50091 20,7.54359 20,10 L20,19 C20,20.6569 18.6569,22 17,22 L7,22 C5.34315,22 4,20.6569 4,19 L4,10 C4,7.54359 5.77136,5.50091 8.1064,5.07962 C8.52213,3.31414 10.1076,2 12,2 Z M15,18 L9,18 L9,20 L15,20 L15,18 Z M14,14 L10,14 C9.48716857,14 9.06449347,14.386027 9.0067278,14.8833761 L9,15 L9,16 L15,16 L15,15 C15,14.48715 14.613973,14.0644908 14.1166239,14.0067275 L14,14 Z M13,9 L11,9 C10.4477,9 10,9.44772 10,10 C10,10.5523 10.4477,11 11,11 L13,11 C13.5523,11 14,10.5523 14,10 C14,9.44772 13.5523,9 13,9 Z M12,4 C11.2597,4 10.6134,4.4022 10.2676,5 L13.7324,5 C13.3866,4.4022 12.7403,4 12,4 Z" id="形状" fill="#09244B"></path>
            </g>
        </g>
    </g>
</svg>

<svg xmlns="http://www.w3.org/2000/svg" width="24" height="24"><g fill="none" fill-rule="evenodd"><path d="M24 0v24H0V0h24ZM12.594 23.258l-.012.002-.071.035-.02.004-.014-.004-.071-.036c-.01-.003-.019 0-.024.006l-.004.01-.017.428.005.02.01.013.104.074.015.004.012-.004.104-.074.012-.016.004-.017-.017-.427c-.002-.01-.009-.017-.016-.018Zm.264-.113-.014.002-.184.093-.01.01-.003.011.018.43.005.012.008.008.201.092c.012.004.023 0 .029-.008l.004-.014-.034-.614c-.003-.012-.01-.02-.02-.022Zm-.715.002a.023.023 0 0 0-.027.006l-.006.014-.034.614c0 .012.007.02.017.024l.015-.002.201-.093.01-.008.003-.011.018-.43-.003-.012-.01-.01-.184-.092Z"/><path fill="#09244B" d="M12 2a4.002 4.002 0 0 1 3.894 3.08A5.002 5.002 0 0 1 20 10v9a3 3 0 0 1-3 3H7a3 3 0 0 1-3-3v-9c0-2.456 1.771-4.5 4.106-4.92A4.002 4.002 0 0 1 12 2Zm3 16H9v2h6v-2Zm-1-4h-4a1 1 0 0 0-.993.883L9 15v1h6v-1a1 1 0 0 0-.883-.993L14 14Zm-1-5h-2a1 1 0 1 0 0 2h2a1 1 0 1 0 0-2Zm-1-5a2 2 0 0 0-1.732 1h3.464A2 2 0 0 0 12 4Z"/></g></svg>
